X:1
T:Title
%%score { 1 | 2 }
L:1/8
M:4/4
K:Eb
V:1 treble nm="Grand Piano"
V:2 bass 
V:1
 z4 z2 z[Q:1/4=92] E | G2 G_G =G [GB]2 [GB] | [Ac]2 [GB][_G=A] [=GB]3 [GB] | %3
 [Ac]2 [Ad][Ad] [Ge] [GB]2 B | A2 GG [DF]3 E | G2 G_G =G [GB]2 [GB] | [F=A]2 [FA][Ac] [Af]3 [Ae] | %7
 d2 dd e B2 c |[M:7/8] d2 c c [DB]3 |[M:1/8] B |[M:4/4] [Ge]2 [Ge][Af] [Ge] [EGB]2 G | EFGA B3 B | %12
 [FAd]2 [FAd][FAd] [FAd] [DFA]2 [DAc] | [Ac]2 [GB][_G=A] [=GB]3 [GB] | %14
 [Ge]2 [Ge][Af] [Ge]2 [GB][GB] | c2 cc [=Af]2 [Ae][Ae] | dd d2 e2 BA |[M:7/8] G [DG]2 [DF] E3 |] %18
V:2
 z4 z2 z [E,G,] | [E,B,E]2 [E,B,E][E,=A,E] [E,B,E] [E,E]2 [E,E] | [E,E]2 [E,E][E,E] [E,E]3 [E,E] | %3
 [A,E]2 [F,B,][F,B,] [E,B,] [E,E]2 [G,B,E] | [F,B,D]2 [E,B,E][E,B,E] [B,,B,]3 [E,G,] | %5
 [E,B,E]2 [E,B,E][E,=A,E] [E,B,E] [E,E]2 [E,E] | [F,E]2 [F,E][F,E] [F,C]3 [F,C] | %7
 [B,A]2 [A,B,F][A,B,F] [G,B,E] [G,B,E]2[K:bass] [_G,B,E] | %8
[M:7/8] [F,B,F]2 [F,=A,E] [F,A,E] [B,,B,]3 |[M:1/8] [B,A] | %10
[M:4/4] [E,B,]2 [E,B,][E,B,] [E,B,] E,2 G, | E,F,G,A, B,3 B, | B,,2 B,,B,, B,, B,,2 B,, | %13
 [E,E]2 [E,E][E,E] [E,E]3 [E,E] | [E,B,]2 [E,B,][E,B,] [E,B,]2 [E,E][E,E] | %15
 [A,EA]2 [A,EA][A,EA][K:bass] [F,E]2 [F,C][F,C] | %16
 [B,A][B,A] [A,B,F]2 [G,B,E]2 [G,B,E][K:bass][A,CE] |[M:7/8] [B,E] [B,,B,]2 [B,,A,] [E,G,]3 |] %18

